; HEADER_BLOCK_START
; generated by OrcaSlicer 2.3.2-dev on 2026-03-01 at 00:16:17
; total layer number: 25
; filament_density: 1.23
; filament_diameter: 1.75
; max_z_height: 5.00
; filament: 1
; HEADER_BLOCK_END

; THUMBNAIL_BLOCK_START

;
; THUMBNAIL_BLOCK_END

; external perimeters extrusion width = 0.60mm
; perimeters extrusion width = 0.60mm
; infill extrusion width = 0.60mm
; solid infill extrusion width = 0.60mm
; top infill extrusion width = 0.38mm
; first layer extrusion width = 0.40mm

; EXECUTABLE_BLOCK_START
M73 P0 R5
M201 X6000 Y6000 Z300 E4000
M203 X500 Y500 Z50 E1000
M204 P6000 R1000 T6000 ; sets acceleration (P, T) and retract acceleration (R), mm/sec^2
M205 X12.00 Y12.00 Z0.30 E3.00 ; sets the jerk limits, mm/sec
M205 J0.010
;TYPE:Custom
;M4899 T3 ; Enable v3 jerk and S-curve acceleration 
;M104 S150 ; Set hotend temp to 150 degrees to prevent ooze
M190 S60 ; set and wait for bed temp to stabilize
M109 S200 ; set final nozzle temp to stabilize
G28 ;Home
;M900 K0.1 ;Pressure Advance
M420 S1 Z10
;LAYER_COUNT:25
G90
G21
M83 ; use relative distances for extrusion
; Filament gcode
M900 K0.065; Override pressure advance value
M106 S0
;LAYER_CHANGE
;Z:0.2
;HEIGHT:0.2
;BEFORE_LAYER_CHANGE
G92 E0.0
;0.2


G1 E-.6 F3600
;_SET_FAN_SPEED_CHANGING_LAYER
M204 P300
M205 X8 Y8
M204 T300
G1 X102.636 Y102.482 F18000
G1 Z.2
G1 Z.2
G1 E.6 F3600
;TYPE:Skirt
;WIDTH:0.4
G1 F3000
G1 X102.954 Y102.117 E.01311
G1 X105 Y101.464 E.05816
G1 X130 Y101.464 E.67696
G1 X131.623 Y101.859 E.04522
G1 X132.883 Y102.954 E.04522
G1 X133.536 Y105 E.05816
G1 X133.536 Y130 E.67696
G1 X133.141 Y131.623 E.04522
G1 X132.046 Y132.883 E.04522
G1 X130 Y133.536 E.05816
G1 X105 Y133.536 E.67696
G1 X103.377 Y133.141 E.04522
M73 P1 R5
G1 X102.117 Y132.046 E.04522
G1 X101.464 Y130 E.05816
G1 X101.464 Y105 E.67696
G1 X101.859 Y103.377 E.04522
G1 X102.61 Y102.512 E.03102
G1 X102.877 Y102.764 F18000
G1 F3000
G1 X103.299 Y102.315 E.01667
G1 X105 Y101.821 E.04797
G1 X130 Y101.821 E.67696
G1 X131.532 Y102.215 E.04284
G1 X132.685 Y103.299 E.04284
G1 X133.179 Y105 E.04797
G1 X133.179 Y130 E.67696
G1 X132.785 Y131.532 E.04284
G1 X131.701 Y132.685 E.04284
G1 X130 Y133.179 E.04797
G1 X105 Y133.179 E.67696
G1 X103.468 Y132.785 E.04284
G1 X102.315 Y131.701 E.04284
G1 X101.821 Y130 E.04797
G1 X101.821 Y105 E.67696
G1 X102.215 Y103.468 E.04284
M73 P2 R5
G1 X102.85 Y102.793 E.02509
; printing object Würfel id:93858010925392 copy 0
;WIPE_START
G1 X103.299 Y102.315 E-.39336
G1 X103.63 Y102.219 E-.20664
;WIPE_END
G1 X128.821 Y129.221 F18000
G1 E.6 F3600
;TYPE:Inner wall
;WIDTH:0.399999
G1 X105.779 Y129.221 E.62397
G1 X105.779 Y105.779 E.6348
G1 X129.221 Y105.779 E.6348
G1 X129.221 Y129.221 E.6348
G1 X128.861 Y129.221 E.00975
M73 P3 R5
G1 X129.4 Y129.254 F18000
;TYPE:Outer wall
G1 F3600
G1 X129.6 Y129.6
G1 X105.4 Y129.6 E.6553
G1 X105.4 Y105.4 E.6553
G1 X129.6 Y105.4 E.6553
G1 X129.6 Y129.56 E.65421
G1 X129.523 Y129.579
;WIPE_START
G1 X128.6 Y129.562 E-.6
;WIPE_END
G1 X129.114 Y106.609 F18000
G1 E.6 F3600
;TYPE:Bottom surface
;WIDTH:0.400537
G1 X128.552 Y106.046 E.02157
G1 X128.046 Y106.046 E.01372
G1 X128.954 Y106.954 E.0348
G1 X128.954 Y107.459 E.01372
G1 X127.541 Y106.046 E.0542
G1 X127.035 Y106.046 E.01372
G1 X128.954 Y107.965 E.07359
G1 X128.954 Y108.471 E.01372
G1 X126.529 Y106.046 E.09299
M73 P4 R5
G1 X126.023 Y106.046 E.01372
G1 X128.954 Y108.977 E.11239
G1 X128.954 Y109.482 E.01372
G1 X125.518 Y106.046 E.13178
G1 X125.012 Y106.046 E.01372
G1 X128.954 Y109.988 E.15118
G1 X128.954 Y110.494 E.01372
G1 X124.506 Y106.046 E.17058
G1 X124 Y106.046 E.01372
G1 X128.954 Y111 E.18997
G1 X128.954 Y111.505 E.01372
G1 X123.495 Y106.046 E.20937
G1 X122.989 Y106.046 E.01372
G1 X128.954 Y112.011 E.22877
G1 X128.954 Y112.517 E.01372
G1 X122.483 Y106.046 E.24816
G1 X121.977 Y106.046 E.01372
G1 X128.954 Y113.023 E.26756
G1 X128.954 Y113.528 E.01372
G1 X121.472 Y106.046 E.28695
G1 X120.966 Y106.046 E.01372
G1 X128.954 Y114.034 E.30635
G1 X128.954 Y114.54 E.01372
G1 X120.46 Y106.046 E.32575
G1 X119.954 Y106.046 E.01372
M73 P5 R5
G1 X128.954 Y115.046 E.34514
G1 X128.954 Y115.551 E.01372
G1 X119.449 Y106.046 E.36454
G1 X118.943 Y106.046 E.01372
G1 X128.954 Y116.057 E.38394
G1 X128.954 Y116.563 E.01372
G1 X118.437 Y106.046 E.40333
G1 X117.931 Y106.046 E.01372
G1 X128.954 Y117.069 E.42273
G1 X128.954 Y117.574 E.01372
G1 X117.426 Y106.046 E.44213
G1 X116.92 Y106.046 E.01372
G1 X128.954 Y118.08 E.46152
G1 X128.954 Y118.586 E.01372
G1 X116.414 Y106.046 E.48092
G1 X115.908 Y106.046 E.01372
M73 P6 R5
G1 X128.954 Y119.092 E.50032
G1 X128.954 Y119.597 E.01372
G1 X115.403 Y106.046 E.51971
G1 X114.897 Y106.046 E.01372
G1 X128.954 Y120.103 E.53911
G1 X128.954 Y120.609 E.01372
G1 X114.391 Y106.046 E.55851
G1 X113.885 Y106.046 E.01372
G1 X128.954 Y121.115 E.5779
G1 X128.954 Y121.62 E.01372
G1 X113.38 Y106.046 E.5973
G1 X112.874 Y106.046 E.01372
G1 X128.954 Y122.126 E.6167
G1 X128.954 Y122.632 E.01372
M73 P7 R5
G1 X112.368 Y106.046 E.63609
G1 X111.862 Y106.046 E.01372
G1 X128.954 Y123.138 E.65549
G1 X128.954 Y123.643 E.01372
G1 X111.357 Y106.046 E.67489
G1 X110.851 Y106.046 E.01372
G1 X128.954 Y124.149 E.69428
G1 X128.954 Y124.655 E.01372
G1 X110.345 Y106.046 E.71368
G1 X109.839 Y106.046 E.01372
G1 X128.954 Y125.161 E.73308
G1 X128.954 Y125.666 E.01372
M73 P8 R5
G1 X109.334 Y106.046 E.75247
G1 X108.828 Y106.046 E.01372
G1 X128.954 Y126.172 E.77187
G1 X128.954 Y126.678 E.01372
G1 X108.322 Y106.046 E.79127
G1 X107.816 Y106.046 E.01372
G1 X128.954 Y127.184 E.81066
G1 X128.954 Y127.689 E.01372
G1 X107.311 Y106.046 E.83006
G1 X106.805 Y106.046 E.01372
M73 P9 R5
G1 X128.954 Y128.195 E.84946
G1 X128.954 Y128.701 E.01372
G1 X106.299 Y106.046 E.86885
G1 X106.046 Y106.046 E.00686
G1 X106.046 Y106.299 E.00686
G1 X128.701 Y128.954 E.86885
G1 X128.195 Y128.954 E.01372
G1 X106.046 Y106.805 E.84945
G1 X106.046 Y107.311 E.01372
G1 X127.689 Y128.954 E.83006
G1 X127.183 Y128.954 E.01372
M73 P10 R5
G1 X106.046 Y107.817 E.81066
G1 X106.046 Y108.322 E.01372
G1 X126.678 Y128.954 E.79126
G1 X126.172 Y128.954 E.01372
G1 X106.046 Y108.828 E.77187
G1 X106.046 Y109.334 E.01372
G1 X125.666 Y128.954 E.75247
G1 X125.161 Y128.954 E.01372
G1 X106.046 Y109.839 E.73307
G1 X106.046 Y110.345 E.01372
M73 P11 R5
G1 X124.655 Y128.954 E.71368
G1 X124.149 Y128.954 E.01372
G1 X106.046 Y110.851 E.69428
G1 X106.046 Y111.357 E.01372
G1 X123.643 Y128.954 E.67488
G1 X123.138 Y128.954 E.01372
G1 X106.046 Y111.862 E.65549
G1 X106.046 Y112.368 E.01372
G1 X122.632 Y128.954 E.63609
G1 X122.126 Y128.954 E.01372
G1 X106.046 Y112.874 E.61669
G1 X106.046 Y113.38 E.01372
M73 P12 R5
G1 X121.62 Y128.954 E.5973
G1 X121.115 Y128.954 E.01372
G1 X106.046 Y113.885 E.5779
G1 X106.046 Y114.391 E.01372
G1 X120.609 Y128.954 E.5585
G1 X120.103 Y128.954 E.01372
G1 X106.046 Y114.897 E.53911
G1 X106.046 Y115.403 E.01372
G1 X119.597 Y128.954 E.51971
G1 X119.092 Y128.954 E.01372
G1 X106.046 Y115.908 E.50031
G1 X106.046 Y116.414 E.01372
G1 X118.586 Y128.954 E.48092
G1 X118.08 Y128.954 E.01372
M73 P13 R5
G1 X106.046 Y116.92 E.46152
G1 X106.046 Y117.426 E.01372
G1 X117.574 Y128.954 E.44212
G1 X117.069 Y128.954 E.01372
G1 X106.046 Y117.931 E.42273
G1 X106.046 Y118.437 E.01372
G1 X116.563 Y128.954 E.40333
G1 X116.057 Y128.954 E.01372
G1 X106.046 Y118.943 E.38393
G1 X106.046 Y119.449 E.01372
G1 X115.551 Y128.954 E.36454
G1 X115.046 Y128.954 E.01372
G1 X106.046 Y119.954 E.34514
G1 X106.046 Y120.46 E.01372
G1 X114.54 Y128.954 E.32574
G1 X114.034 Y128.954 E.01372
M73 P14 R5
G1 X106.046 Y120.966 E.30635
G1 X106.046 Y121.472 E.01372
G1 X113.528 Y128.954 E.28695
G1 X113.023 Y128.954 E.01372
G1 X106.046 Y121.977 E.26756
G1 X106.046 Y122.483 E.01372
G1 X112.517 Y128.954 E.24816
G1 X112.011 Y128.954 E.01372
G1 X106.046 Y122.989 E.22876
G1 X106.046 Y123.495 E.01372
G1 X111.505 Y128.954 E.20937
G1 X111 Y128.954 E.01372
G1 X106.046 Y124 E.18997
G1 X106.046 Y124.506 E.01372
G1 X110.494 Y128.954 E.17057
G1 X109.988 Y128.954 E.01372
G1 X106.046 Y125.012 E.15118
G1 X106.046 Y125.518 E.01372
G1 X109.482 Y128.954 E.13178
G1 X108.977 Y128.954 E.01372
G1 X106.046 Y126.023 E.11238
G1 X106.046 Y126.529 E.01372
G1 X108.471 Y128.954 E.09299
G1 X107.965 Y128.954 E.01372
M73 P15 R5
G1 X106.046 Y127.035 E.07359
G1 X106.046 Y127.541 E.01372
G1 X107.459 Y128.954 E.05419
G1 X106.954 Y128.954 E.01372
M73 P15 R4
G1 X106.046 Y128.046 E.0348
G1 X106.046 Y128.552 E.01372
G1 X106.609 Y129.114 E.02156
; stop printing object Würfel id:93858010925392 copy 0
;LAYER_CHANGE
;Z:0.4
;HEIGHT:0.2
;BEFORE_LAYER_CHANGE
G92 E0.0
;0.4


;WIPE_START
G1 F3600
G1 X106.046 Y128.552 E-.47706
G1 X106.046 Y128.347 E-.12294
;WIPE_END
;_SET_FAN_SPEED_CHANGING_LAYER
M204 P1500
; printing object Würfel id:93858010925392 copy 0
M204 T1800
M205 X9 Y9
G1 X128.521 Y129.121 Z.4 F18000
G1 E.6 F3600
M204 P700
M205 X8 Y8
;TYPE:Inner wall
;WIDTH:0.599999
G1 F7085.832
G1 X105.879 Y129.121 E.95655
G1 X105.879 Y105.879 E.9819
G1 X129.121 Y105.879 E.9819
G1 X129.121 Y129.121 E.9819
G1 X128.561 Y129.121 E.02366
M204 T500
M205 X5 Y5
G1 X128.561 Y129.164 F18000
G1 X129.164 Y129.164
G1 X129.7 Y129.7
M204 P500
;TYPE:Outer wall
G1 F7085.832
G1 X105.3 Y129.7 E1.03078
G1 X105.3 Y105.3 E1.03078
G1 X129.7 Y105.3 E1.03078
G1 X129.7 Y129.66 E1.02909
M73 P16 R4
G1 X129.623 Y129.679
M204 T1800
M205 X9 Y9
G1 E-.09194 F3600
;WIPE_START
G1 F7085.832
G1 X128.7 Y129.662 E-.50806
;WIPE_END
G1 X128.7 Y129.164 F18000
G1 X129.164 Y129.164
G1 X129.164 Y128.143
G1 X128.693 Y128.143
G1 E.6 F3600
M204 P1500
;TYPE:Internal solid infill
;WIDTH:0.6
G1 F7085.824
G3 X128.155 Y128.693 I-3.747 J-3.126 E.0325
G1 X127.332 Y128.693 F18000
G1 F7085.824
G1 X127.948 Y128.126 E.03536
G1 X128.693 Y127.324 E.04623
G1 X128.693 Y126.456 F18000
G1 F7085.824
G1 X127.938 Y127.336 E.04896
G1 X127.104 Y128.161 E.04957
G1 X126.472 Y128.693 E.0349
G1 X125.56 Y128.693 F18000
G1 F7085.824
G1 X125.803 Y128.523 E.01248
G1 X126.687 Y127.787 E.04861
G1 X127.508 Y126.981 E.0486
G1 X128.257 Y126.109 E.04859
G1 X128.693 Y125.508 E.03134
G1 X128.693 Y124.506 F18000
G1 F7085.824
G1 X128.168 Y125.302 E.04028
G1 X127.471 Y126.187 E.04759
G1 X126.701 Y127.01 E.0476
G1 X125.863 Y127.764 E.04762
G1 X124.964 Y128.444 E.04763
G1 X124.57 Y128.693 E.01966
G1 X123.483 Y128.693 F18000
G1 F7085.824
G1 X123.706 Y128.578 E.01059
G1 X124.641 Y127.991 E.04663
G1 X125.52 Y127.325 E.04662
G1 X126.339 Y126.585 E.0466
G1 X127.089 Y125.777 E.04659
G1 X127.766 Y124.907 E.04658
G1 X128.365 Y123.981 E.04656
G1 X128.693 Y123.364 E.02952
G1 X128.693 Y122.045 F18000
G1 F7085.824
G1 X128.242 Y123.047 E.0464
G1 X127.712 Y123.985 E.04552
G1 X127.101 Y124.873 E.04553
G1 X126.413 Y125.703 E.04554
G1 X125.653 Y126.468 E.04556
G1 X124.829 Y127.164 E.04557
G1 X123.945 Y127.784 E.04559
G1 X123.01 Y128.323 E.0456
G1 X122.211 Y128.693 E.03719
G1 X120.524 Y128.693 F18000
G1 F7085.824
G1 X120.972 Y128.57 E.01961
G1 X121.96 Y128.202 E.04457
G1 X122.911 Y127.745 E.04456
G1 X123.816 Y127.203 E.04454
G1 X124.667 Y126.582 E.04453
G1 X125.459 Y125.887 E.04451
G1 X126.183 Y125.122 E.0445
G1 X126.834 Y124.295 E.04448
G1 X127.408 Y123.412 E.04447
G1 X127.898 Y122.481 E.04445
G1 X128.301 Y121.509 E.04443
G1 X128.614 Y120.506 E.04442
G1 X128.693 Y120.138 E.01587
G1 X117.5 Y117.5 F18000
G1 F7085.824
G1 X117.106 Y117.894 E.02353
G1 X116.946 Y117.715 E.01015
G1 X116.871 Y117.479 E.01044
G1 X116.895 Y117.227 E.01072
G1 X117.016 Y116.997 E.01098
G1 X117.219 Y116.825 E.01123
G1 X117.476 Y116.737 E.01147
G1 X117.753 Y116.747 E.0117
G1 X118.014 Y116.854 E.01192
G1 X118.226 Y117.047 E.01213
G1 X118.364 Y117.305 E.01234
G1 X118.41 Y117.598 E.01254
G1 X118.357 Y117.895 E.01273
G1 X118.211 Y118.163 E.01292
G1 X117.984 Y118.375 E.0131
G1 X117.699 Y118.508 E.01328
G1 X117.383 Y118.548 E.01345
G1 X117.066 Y118.49 E.01362
G1 X116.777 Y118.339 E.01378
G1 X116.542 Y118.107 E.01394
G1 X116.384 Y117.813 E.0141
G1 X116.315 Y117.483 E.01425
G1 X116.343 Y117.143 E.0144
G1 X116.467 Y116.822 E.01455
G1 X116.678 Y116.545 E.01469
G1 X116.959 Y116.335 E.01484
G1 X117.29 Y116.208 E.01497
G1 X117.646 Y116.175 E.01511
G1 X118.001 Y116.239 E.01524
G1 X118.33 Y116.397 E.01538
G1 X118.607 Y116.637 E.01551
G1 X118.814 Y116.944 E.01563
G1 X118.936 Y117.297 E.01576
G1 X118.963 Y117.672 E.01588
G1 X118.893 Y118.044 E.016
G1 X118.73 Y118.389 E.01612
G1 X118.484 Y118.685 E.01624
G1 X118.17 Y118.911 E.01636
G1 X117.808 Y119.054 E.01647
G1 X117.418 Y119.104 E.01658
G1 X117.026 Y119.057 E.01669
G1 X116.654 Y118.916 E.0168
G1 X116.325 Y118.688 E.01691
G1 X116.058 Y118.386 E.01702
G1 X115.87 Y118.027 E.01712
G1 X115.771 Y117.631 E.01723
G1 X115.767 Y117.221 E.01733
G1 X115.86 Y116.819 E.01743
G1 X116.044 Y116.447 E.01754
G1 X116.311 Y116.126 E.01763
G1 X116.646 Y115.873 E.01773
G1 X117.032 Y115.702 E.01783
G1 X117.449 Y115.623 E.01793
G1 X117.875 Y115.64 E.01802
G1 X118.289 Y115.752 E.01812
G1 X118.669 Y115.955 E.01821
G1 X118.997 Y116.239 E.0183
G1 X119.255 Y116.59 E.01839
G1 X119.43 Y116.99 E.01849
G1 X119.514 Y117.422 E.01857
G1 X119.503 Y117.864 E.01866
G1 X119.395 Y118.294 E.01875
G1 X119.196 Y118.693 E.01884
G1 X118.915 Y119.042 E.01893
G1 X118.564 Y119.324 E.01901
G1 X118.16 Y119.526 E.0191
G1 X117.72 Y119.638 E.01918
G1 X117.264 Y119.655 E.01926
G1 X116.813 Y119.576 E.01935
G1 X116.387 Y119.404 E.01943
G1 X116.004 Y119.146 E.01951
G1 X115.682 Y118.812 E.01959
G1 X115.434 Y118.418 E.01967
G1 X115.272 Y117.979 E.01975
G1 X115.203 Y117.515 E.01983
G1 X115.23 Y117.045 E.01991
G1 X115.352 Y116.588 E.01998
G1 X115.565 Y116.163 E.02006
G1 X115.861 Y115.789 E.02014
G1 X116.226 Y115.481 E.02021
G1 X116.648 Y115.251 E.02029
G1 X117.109 Y115.109 E.02036
G1 X117.59 Y115.061 E.02044
G1 X118.073 Y115.11 E.02051
G1 X118.539 Y115.253 E.02058
G1 X118.969 Y115.485 E.02066
G1 X119.346 Y115.799 E.02073
G1 X119.656 Y116.181 E.0208
G1 X119.887 Y116.618 E.02087
G1 X120.03 Y117.093 E.02094
G1 X120.078 Y117.588 E.02101
G1 X120.03 Y118.084 E.02108
G1 X119.887 Y118.564 E.02115
G1 X119.655 Y119.009 E.02122
G1 X119.341 Y119.403 E.02129
G1 X118.956 Y119.731 E.02135
G1 X118.515 Y119.982 E.02142
G1 X118.033 Y120.145 E.02149
G1 X117.528 Y120.215 E.02155
G1 X117.017 Y120.188 E.02162
G1 X116.518 Y120.067 E.02169
G1 X116.049 Y119.854 E.02175
G1 X115.627 Y119.556 E.02182
G1 X115.266 Y119.185 E.02188
G1 X114.979 Y118.752 E.02195
G1 X114.777 Y118.272 E.02201
G1 X114.665 Y117.761 E.02207
G1 X114.649 Y117.238 E.02214
G1 X114.729 Y116.718 E.0222
G1 X114.902 Y116.221 E.02226
G1 X115.164 Y115.762 E.02232
G1 X115.506 Y115.356 E.02238
G1 X115.916 Y115.019 E.02245
G1 X116.381 Y114.76 E.02251
G1 X116.887 Y114.588 E.02257
G1 X117.417 Y114.509 E.02263
G1 X117.954 Y114.527 E.02269
G1 X118.48 Y114.64 E.02275
G1 X118.979 Y114.845 E.02281
G1 X119.436 Y115.136 E.02287
G1 X119.834 Y115.505 E.02292
G1 X120.162 Y115.938 E.02298
G1 X120.41 Y116.425 E.02304
G1 X120.568 Y116.948 E.0231
G1 X120.633 Y117.492 E.02316
G1 X120.602 Y118.041 E.02321
G1 X120.476 Y118.577 E.02327
G1 X120.257 Y119.084 E.02333
G1 X119.954 Y119.547 E.02338
G1 X119.574 Y119.951 E.02344
G1 X119.129 Y120.285 E.0235
G1 X118.632 Y120.537 E.02355
G1 X118.097 Y120.701 E.02361
G1 X117.542 Y120.771 E.02366
G1 X116.981 Y120.746 E.02372
G1 X116.431 Y120.624 E.02377
G1 X115.909 Y120.411 E.02383
G1 X115.43 Y120.111 E.02388
G1 X115.007 Y119.734 E.02393
G1 X114.654 Y119.29 E.02399
G1 X114.379 Y118.791 E.02404
G1 X114.192 Y118.252 E.02409
G1 X114.098 Y117.689 E.02415
G1 X114.1 Y117.116 E.0242
G1 X114.197 Y116.55 E.02425
G1 X114.388 Y116.007 E.02431
G1 X114.667 Y115.503 E.02436
G1 X115.026 Y115.05 E.02441
M73 P17 R4
G1 X115.457 Y114.663 E.02446
G1 X115.946 Y114.352 E.02451
G1 X116.482 Y114.125 E.02456
G1 X117.048 Y113.989 E.02461
G1 X117.631 Y113.948 E.02466
G1 X118.213 Y114.003 E.02472
G1 X118.78 Y114.153 E.02477
G1 X119.316 Y114.393 E.02482
G1 X119.806 Y114.719 E.02487
G1 X120.238 Y115.121 E.02492
G1 X120.6 Y115.588 E.02496
G1 X120.881 Y116.109 E.02501
G1 X121.075 Y116.67 E.02506
G1 X121.177 Y117.255 E.02511
G1 X121.182 Y117.851 E.02516
G1 X121.092 Y118.441 E.02521
G1 X120.908 Y119.01 E.02526
G1 X120.635 Y119.543 E.02531
G1 X120.279 Y120.026 E.02535
G1 X119.85 Y120.448 E.0254
